X:1481
T:Sarabande
C:Andreas Hammerschmidt
O:Germany
B:Hammerschmidt: "Ander Theil Allerhand newer Paduanen, Galliarden..." (1639)
Z:Transcribed by Frank Nordberg - http://www.musicaviva.com
F:http://abc.musicaviva.com/tunes/hammerschmidt-andreas/hammerschmidt-srbnd-02-kbd.abc
M:3/4
L:1/4
K:C
V:1
eee|dc/d/B|gf/e/d/c/|BA/B/G|
V:2
ccc|G2G|E2F|GDG,|
%
V:1
ccc|d2c::ggg|ed/e/c|BBB|
V:2
CEC|G2C::EEE|C2C|GGG|
%
V:1
AG/A/G|g3|f3|eee|de/d/c:|
V:2
D2G|E3|D3|CEC|G2C:|
W:
W:
W:  From Musica Viva - http://www.musicaviva.com
W:  the Internet center for free sheet music downloads.


